Hatter-kde/actions/16/find-location.svg

<?xml version="1.0" encoding="UTF-8"?>
<!DOCTYPE svg>
<svg version="1.1" viewBox="0 0 16 16" xmlns="http://www.w3.org/2000/svg">
 <defs>
  <style id="current-color-scheme" type="text/css">.ColorScheme-Text {
                color:#363636;
            }</style>
 </defs>
 <path class="ColorScheme-Text" d="m4.5 2c-1.3807 0-2.5 1.1193-2.5 2.5v6c0 1.3807 1.1193 2.5 2.5 2.5h5.5v-1h-5.5c-0.82843 0-1.5-0.6716-1.5-1.5 0-0.82843 0.67157-1.5 1.5-1.5h0.5v-4h7v5h1v-6h-8v-2h-0.5zm-0.5 1.0879v4.9629c-0.36279 0.07508-0.70436 0.22985-1 0.45313v-4.0039c8.9e-4 -0.6349 0.40141-1.2005 1-1.4121z" fill="currentColor"/>
 <path class="ColorScheme-Text" d="m8.5 6c-1.3807 0-2.5 1.1193-2.5 2.5s1.1193 2.5 2.5 2.5c0.48983-8e-4 0.96864-0.1454 1.377-0.416l2.416 2.416 0.707-0.707-2.416-2.416c0.2706-0.40831 0.4152-0.88712 0.416-1.377 0-1.3807-1.1193-2.5-2.5-2.5zm0 1c0.82843 0 1.5 0.67157 1.5 1.5s-0.67157 1.5-1.5 1.5-1.5-0.67157-1.5-1.5 0.67157-1.5 1.5-1.5z" fill="currentColor"/>
</svg>

<!DOCTYPE svg>
<svg xmlns="http://www.w3.org/2000/svg" version="1.1" viewBox="0 0 16 16">
    <defs>
        <style id="current-color-scheme" type="text/css">
            .ColorScheme-Text {
                color:#363636;
            }
        </style>
    </defs>
    <path style="fill:currentColor; fill-opacity:1; stroke:none" class="ColorScheme-Text" d="M 4.5 2 C 3.11929 2 2 3.11929 2 4.5 L 2 10.5 C 2 11.8807 3.11929 13 4.5 13 L 10 13 L 10 12 L 4.5 12 C 3.67157 12 3 11.3284 3 10.5 C 3 9.67157 3.67157 9 4.5 9 L 5 9 L 5 5 L 12 5 L 12 10 L 13 10 L 13 4 L 5 4 L 5 2 L 4.5 2 Z M 4 3.08789 L 4 8.05078 C 3.63721 8.12586 3.29564 8.28063 3 8.50391 L 3 4.5 C 3.00089 3.8651 3.40141 3.29952 4 3.08789 Z"/>
    <path style="fill:currentColor; fill-opacity:1; stroke:none" class="ColorScheme-Text" d="M 8.5 6 C 7.11929 6 6 7.11929 6 8.5 C 6 9.88071 7.11929 11 8.5 11 C 8.98983 10.9992 9.46864 10.8546 9.87695 10.584 L 12.293 13 L 13 12.293 L 10.584 9.87695 C 10.8546 9.46864 10.9992 8.98983 11 8.5 C 11 7.11929 9.88071 6 8.5 6 Z M 8.5 7 C 9.32843 7 10 7.67157 10 8.5 C 10 9.32843 9.32843 10 8.5 10 C 7.67157 10 7 9.32843 7 8.5 C 7 7.67157 7.67157 7 8.5 7 Z"/>
</svg>
